icon/CC0/currency/individual/OCAL/scalable/coin_01_gold.svg

<?xml version="1.0" encoding="UTF-8" standalone="no"?>
<svg
   xmlns:dc="http://purl.org/dc/elements/1.1/"
   xmlns:cc="http://creativecommons.org/ns#"
   xmlns:rdf="http://www.w3.org/1999/02/22-rdf-syntax-ns#"
   xmlns:svg="http://www.w3.org/2000/svg"
   xmlns="http://www.w3.org/2000/svg"
   xmlns:sodipodi="http://sodipodi.sourceforge.net/DTD/sodipodi-0.dtd"
   xmlns:inkscape="http://www.inkscape.org/namespaces/inkscape"
   width="256"
   height="248.96399"
   version="1.1"
   id="svg32"
   sodipodi:docname="coin_01_gold.svg"
   inkscape:version="0.92.4 (5da689c313, 2019-01-14)">
  <title
     id="title845">Gold Coin</title>
  <metadata
     id="metadata38">
    <rdf:RDF>
      <cc:Work
         rdf:about="">
        <dc:format>image/svg+xml</dc:format>
        <dc:type
           rdf:resource="http://purl.org/dc/dcmitype/StillImage" />
        <dc:title>Gold Coin</dc:title>
        <cc:license
           rdf:resource="http://creativecommons.org/publicdomain/zero/1.0/" />
        <dc:publisher>
          <cc:Agent>
            <dc:title>OpenClipart Library</dc:title>
          </cc:Agent>
        </dc:publisher>
        <dc:source>https://openclipart.org/detail/283727</dc:source>
      </cc:Work>
      <cc:License
         rdf:about="http://creativecommons.org/publicdomain/zero/1.0/">
        <cc:permits
           rdf:resource="http://creativecommons.org/ns#Reproduction" />
        <cc:permits
           rdf:resource="http://creativecommons.org/ns#Distribution" />
        <cc:permits
           rdf:resource="http://creativecommons.org/ns#DerivativeWorks" />
      </cc:License>
    </rdf:RDF>
  </metadata>
  <defs
     id="defs36" />
  <sodipodi:namedview
     pagecolor="#ffffff"
     bordercolor="#666666"
     borderopacity="1"
     objecttolerance="10"
     gridtolerance="10"
     guidetolerance="10"
     inkscape:pageopacity="0"
     inkscape:pageshadow="2"
     inkscape:window-width="1920"
     inkscape:window-height="1025"
     id="namedview34"
     showgrid="false"
     inkscape:pagecheckerboard="true"
     inkscape:zoom="1.84375"
     inkscape:cx="9.7349945"
     inkscape:cy="177.57715"
     inkscape:window-x="-8"
     inkscape:window-y="-8"
     inkscape:window-maximized="1"
     inkscape:current-layer="svg32"
     fit-margin-top="0"
     fit-margin-left="0"
     fit-margin-right="0"
     fit-margin-bottom="0" />
  <g
     id="g879"
     transform="matrix(0.49968372,0,0,0.49968372,0.09425671,-3.4977819)">
    <g
       inkscape:label="coin"
       id="g862">
      <path
         style="display:inline;fill:#bf9101;stroke:none"
         d="M 237,7 V 8 C 344.31,8 444.008,68.5227 481.947,172 521.136,278.888 479.449,400.816 385,463.667 361.939,479.012 332.835,494.249 305,498 c 5.183,2.023 12.733,-0.844 18,-2.13 16.114,-3.933 32,-9.566 47,-16.651 C 436.048,448.022 484.096,389.079 503.576,319 535.247,205.06 476.509,78.6664 369,29.3087 325.545,9.35812 283.749,6.9949 237,7 Z"
         id="path4"
         inkscape:connector-curvature="0" />
      <path
         style="display:inline;fill:#d9a509;stroke:none"
         d="m 460,385 h -1 c -16.181,29.064 -41.624,55.018 -69,73.656 -44.112,30.032 -97.276,47.657 -151,45.305 C 89.6957,497.423 -23.0344,354.143 6.19985,208 12.3886,177.062 24.8617,147.256 42.3333,121 63.8447,88.6737 92.1949,61.5418 126,42.2809 165.227,19.9307 208.964,8.92773 254,9 291.548,9.06024 331.119,20.5234 364,38.3087 378.483,46.1424 391.112,56.351 405,65 399.907,54.9711 383.536,47.3246 374,41.8503 341.49,23.187 305.421,11.6543 268,8.91125 130.346,-1.1792 6.13812,105.722 0.0393519,245 -6.29787,389.723 120.386,518.358 267,504.17 326.648,498.398 382.152,474.901 425,432 c 11.874,-11.889 31.034,-30.123 35,-47 z"
         id="path6"
         inkscape:connector-curvature="0" />
      <path
         inkscape:connector-curvature="0"
         style="fill:#e9c34f;stroke:none"
         d="M 234,9.42438 C 175.495,17.1061 123.146,34.9663 79,76.0895 57.4311,96.1814 39.8875,120.667 26.7531,147 -42.6549,286.156 38.3058,458.951 189,496.625 c 30.149,7.537 61.254,9.136 92,5.093 C 398.28,486.297 490.784,385.201 495.961,267 501.185,147.7 415.141,37.6324 298,14.1998 277.586,10.1163 254.812,6.69174 234,9.42438 Z"
         id="path8" />
      <path
         inkscape:connector-curvature="0"
         style="fill:#d7a301;stroke:none"
         d="M 233,43.4244 C 186.961,49.4693 144.551,62.9919 108.424,93.7137 89.0292,110.208 73.4745,130.887 61.1397,153 13.0868,239.146 32.9118,355.07 108.424,419.286 c 45.179,38.42 106.866,56.473 165.576,49.429 32.248,-3.87 63.654,-14.803 91,-32.407 C 468.021,369.986 494.485,219.566 416.951,123.196 389.682,89.3032 352.445,64.7217 311,51.9753 286.782,44.527 258.322,40.0997 233,43.4244 Z"
         id="path10" />
      <path
         inkscape:connector-curvature="0"
         style="fill:#e9c34f;stroke:none"
         d="M 240,51.4244 C 198.513,56.8743 160.363,68.3984 126.59,94.3411 106.479,109.789 89.7858,129.539 76.4252,151 23.0316,236.765 44.468,352.528 122.424,416.28 c 45.232,36.99 105.091,52.585 162.576,44.435 28.508,-4.042 55.537,-14.98 80,-29.919 C 384.527,418.872 401.676,402.925 415.789,385 486.039,295.777 469.749,158.691 377,91.4252 357.379,77.195 335.327,65.9883 312,59.2909 289.481,52.8256 263.446,48.3445 240,51.4244 Z"
         id="path12" />
      <path
         inkscape:connector-curvature="0"
         style="fill:#d9a505;stroke:none"
         d="m 460,128 c 8.459,23.238 21.704,43.583 28.116,68 12.344,47.008 9.435,96.221 -6.46,142 -5.701,16.418 -15.795,30.899 -21.656,47 12.028,-10.304 18.751,-33.307 23.667,-48 16.788,-50.183 18.124,-105.497 1.663,-156 -5.258,-16.134 -12.101,-41.668 -25.33,-53 z"
         id="path14" />
    </g>
    <g
       style="display:inline"
       inkscape:label="emblem"
       id="g853">
      <path
         style="display:inline;fill:#bf8f01;stroke:none"
         d="m 249,153 c 3.303,14.062 15.491,28.995 22.89,41.425 8.273,13.897 14.715,30.159 25.11,42.575 1.397,-7.23 -5.227,-15.002 -8.799,-21 -8.847,-14.854 -16.989,-30.125 -25.804,-45 -3.372,-5.689 -6.749,-15.921 -13.397,-18 z"
         id="path16"
         inkscape:connector-curvature="0" />
      <path
         style="display:inline;fill:#d7a301;stroke:none"
         d="m 248,154 -31.86,57 -13.14,25 -2,-2 c -6.117,3.358 -16.792,-2.215 -23,-4.026 C 160.414,224.843 138.212,215.529 120,215 v 3 c 7.757,4.402 11.353,19.211 15.247,27 l 32,64 c 3.319,6.638 7.247,20.683 13.39,24.972 3.734,2.607 11.994,1.028 16.363,1.028 14.057,0 27.965,-1.005 42,-1 19.27,0.007 38.655,1 58,1 6.225,0 16.928,2.069 22.61,-0.603 7.073,-3.328 12.703,-22.517 16.143,-29.397 9.969,-19.939 19.281,-40.191 29.505,-60 4.93,-9.552 12.825,-20.378 14.742,-31 -3.541,0.464 -9.466,1.071 -10,5 -9.532,-1.69 -19.917,3.197 -29,5.975 -14.846,4.541 -30.039,7.837 -45,12.025 -3.131,-10.644 -11.433,-20.542 -16.894,-30.156 C 269.605,190.117 261.294,167.892 248,154 Z"
         id="path18"
         inkscape:connector-curvature="0" />
      <path
         inkscape:connector-curvature="0"
         style="fill:#bf8f01;stroke:none"
         d="m 117,211 c 3.743,5.94 16.06,7.193 22.576,9.08 19.934,5.772 40.868,12.898 61.424,15.92 -3.869,-5.105 -15.924,-6.411 -22,-8.14 -19.462,-5.54 -41.775,-15.936 -62,-16.86 z"
         id="path20" />
      <path
         inkscape:connector-curvature="0"
         style="fill:#bf9101;stroke:none"
         d="m 381,213 c -14.062,29.538 -29.116,58.726 -43.753,88 -4.185,8.37 -9.698,27.908 -17.637,32.972 C 311.714,339.009 290.334,335 281,335 H 179 v 1 c 35.049,0 69.997,1 105,1 h 27 c 3.285,0 8.515,0.96 11.363,-1.028 8.026,-5.603 13.513,-25.229 17.884,-33.972 14.552,-29.103 31.25,-57.968 43.753,-88 z"
         id="path22" />
      <path
         inkscape:connector-curvature="0"
         style="fill:#dfb123;stroke:none"
         d="m 120,218 c 16.426,39.453 37.461,80.097 59,117 h 1 c -3.093,-10.735 -9.762,-21.019 -14.753,-31 l -29,-58 C 132.633,238.773 127.943,220.713 120,218 Z"
         id="path24" />
      <path
         inkscape:connector-curvature="0"
         style="fill:#e3b735;stroke:none"
         d="m 221,334 v 1 h 28 z"
         id="path28" />
      <path
         inkscape:connector-curvature="0"
         id="path30"
         d="m 179,336 v 1 h 72 l -23,-1 z"
         style="display:inline;fill:#d9ad25;stroke:none" />
    </g>
  </g>
</svg>

<?xml version="1.0" standalone="yes"?>
<svg xmlns="http://www.w3.org/2000/svg" xmlns:xlink="http://www.w3.org/1999/xlink" xmlns:svg="http://www.w3.org/2000/svg" xmlns:dc="http://purl.org/dc/elements/1.1/" xmlns:cc="http://web.resource.org/cc/" xmlns:rdf="http://www.w3.org/1999/02/22-rdf-syntax-ns#" width="512" height="512">
<path style="fill:#ffffff; stroke:none;" d="M0 0L0 241L1 241C1.00316 212.35 9.94216 183.098 21.1505 157C92.3562 -8.80188 330.948 -45.9976 449.282 90C465.937 109.141 480.407 130.602 490.421 154C501.757 180.487 510.997 209.913 511 239L512 239L512 0L0 0z"/>
<path style="fill:#bf9101; stroke:none;" d="M237 7L237 8C344.31 8 444.008 68.5227 481.947 172C521.136 278.888 479.449 400.816 385 463.667C361.939 479.012 332.835 494.249 305 498C310.183 500.023 317.733 497.156 323 495.87C339.114 491.937 355 486.304 370 479.219C436.048 448.022 484.096 389.079 503.576 319C535.247 205.06 476.509 78.6664 369 29.3087C325.545 9.35812 283.749 6.9949 237 7z"/>
<path style="fill:#d9a509; stroke:none;" d="M460 385L459 385C442.819 414.064 417.376 440.018 390 458.656C345.888 488.688 292.724 506.313 239 503.961C89.6957 497.423 -23.0344 354.143 6.19985 208C12.3886 177.062 24.8617 147.256 42.3333 121C63.8447 88.6737 92.1949 61.5418 126 42.2809C165.227 19.9307 208.964 8.92773 254 9C291.548 9.06024 331.119 20.5234 364 38.3087C378.483 46.1424 391.112 56.351 405 65C399.907 54.9711 383.536 47.3246 374 41.8503C341.49 23.187 305.421 11.6543 268 8.91125C130.346 -1.1792 6.13812 105.722 0.0393519 245C-6.29787 389.723 120.386 518.358 267 504.17C326.648 498.398 382.152 474.901 425 432C436.874 420.111 456.034 401.877 460 385z"/>
<path style="fill:#e9c34f; stroke:none;" d="M234 9.42438C175.495 17.1061 123.146 34.9663 79 76.0895C57.4311 96.1814 39.8875 120.667 26.7531 147C-42.6549 286.156 38.3058 458.951 189 496.625C219.149 504.162 250.254 505.761 281 501.718C398.28 486.297 490.784 385.201 495.961 267C501.185 147.7 415.141 37.6324 298 14.1998C277.586 10.1163 254.812 6.69174 234 9.42438z"/>
<path style="fill:#d7a301; stroke:none;" d="M233 43.4244C186.961 49.4693 144.551 62.9919 108.424 93.7137C89.0292 110.208 73.4745 130.887 61.1397 153C13.0868 239.146 32.9118 355.07 108.424 419.286C153.603 457.706 215.29 475.759 274 468.715C306.248 464.845 337.654 453.912 365 436.308C468.021 369.986 494.485 219.566 416.951 123.196C389.682 89.3032 352.445 64.7217 311 51.9753C286.782 44.527 258.322 40.0997 233 43.4244z"/>
<path style="fill:#e9c34f; stroke:none;" d="M240 51.4244C198.513 56.8743 160.363 68.3984 126.59 94.3411C106.479 109.789 89.7858 129.539 76.4252 151C23.0316 236.765 44.468 352.528 122.424 416.28C167.656 453.27 227.515 468.865 285 460.715C313.508 456.673 340.537 445.735 365 430.796C384.527 418.872 401.676 402.925 415.789 385C486.039 295.777 469.749 158.691 377 91.4252C357.379 77.195 335.327 65.9883 312 59.2909C289.481 52.8256 263.446 48.3445 240 51.4244z"/>
<path style="fill:#d9a505; stroke:none;" d="M460 128C468.459 151.238 481.704 171.583 488.116 196C500.46 243.008 497.551 292.221 481.656 338C475.955 354.418 465.861 368.899 460 385C472.028 374.696 478.751 351.693 483.667 337C500.455 286.817 501.791 231.503 485.33 181C480.072 164.866 473.229 139.332 460 128z"/>
<path style="fill:#bf8f01; stroke:none;" d="M249 153C252.303 167.062 264.491 181.995 271.89 194.425C280.163 208.322 286.605 224.584 297 237C298.397 229.77 291.773 221.998 288.201 216C279.354 201.146 271.212 185.875 262.397 171C259.025 165.311 255.648 155.079 249 153z"/>
<path style="fill:#d7a301; stroke:none;" d="M248 154L216.14 211L203 236L201 234C194.883 237.358 184.208 231.785 178 229.974C160.414 224.843 138.212 215.529 120 215L120 218C127.757 222.402 131.353 237.211 135.247 245L167.247 309C170.566 315.638 174.494 329.683 180.637 333.972C184.371 336.579 192.631 335 197 335C211.057 335 224.965 333.995 239 334C258.27 334.007 277.655 335 297 335C303.225 335 313.928 337.069 319.61 334.397C326.683 331.069 332.313 311.88 335.753 305C345.722 285.061 355.034 264.809 365.258 245C370.188 235.448 378.083 224.622 380 214C376.459 214.464 370.534 215.071 370 219C360.468 217.31 350.083 222.197 341 224.975C326.154 229.516 310.961 232.812 296 237C292.869 226.356 284.567 216.458 279.106 206.844C269.605 190.117 261.294 167.892 248 154z"/>
<path style="fill:#bf8f01; stroke:none;" d="M117 211C120.743 216.94 133.06 218.193 139.576 220.08C159.51 225.852 180.444 232.978 201 236C197.131 230.895 185.076 229.589 179 227.86C159.538 222.32 137.225 211.924 117 211z"/>
<path style="fill:#bf9101; stroke:none;" d="M381 213C366.938 242.538 351.884 271.726 337.247 301C333.062 309.37 327.549 328.908 319.61 333.972C311.714 339.009 290.334 335 281 335L179 335L179 336C214.049 336 248.997 337 284 337L311 337C314.285 337 319.515 337.96 322.363 335.972C330.389 330.369 335.876 310.743 340.247 302C354.799 272.897 371.497 244.032 384 214L381 213z"/>
<path style="fill:#dfb123; stroke:none;" d="M120 218C136.426 257.453 157.461 298.097 179 335L180 335C176.907 324.265 170.238 313.981 165.247 304L136.247 246C132.633 238.773 127.943 220.713 120 218z"/>
<path style="fill:#ffffff; stroke:none;" d="M511 270C510.997 298.65 502.058 327.902 490.85 354C419.644 519.802 181.051 556.997 62.7184 421C46.0633 401.859 31.5928 380.398 21.5787 357C10.2429 330.513 1.00321 301.087 1 272L0 272L0 512L512 512L512 341L512 292L511 270z"/>
<path style="fill:#e3b735; stroke:none;" d="M221 334L221 335L249 335L221 334z"/>
<path style="fill:#d9ad25; stroke:none;" d="M179 336L179 337L251 337L228 336L179 336z"/>
</svg>
